vector-arrange-above.svg

<svg fill="currentColor" viewBox="0 0 24 24"><path d="M3 1c-1.11 0-2 .89-2 2v11c0 1.11.89 2 2 2h11c1.11 0 2-.89 2-2V3c0-1.11-.89-2-2-2zm0 2h11v11H3zm15 4v2h2v11H9v-2H7v2c0 1.11.89 2 2 2h11c1.11 0 2-.89 2-2V9c0-1.11-.89-2-2-2z"/></svg>

<svg  viewBox="0 0 24 24" fill="currentColor"><path  d="M3,1C1.89,1 1,1.89 1,3V14C1,15.11 1.89,16 3,16C6.67,16 10.33,16 14,16C15.11,16 16,15.11 16,14C16,10.33 16,6.67 16,3C16,1.89 15.11,1 14,1H3M3,3H14V14H3V3M18,7V9H20V20H9V18H7V20C7,21.11 7.89,22 9,22H20C21.11,22 22,21.11 22,20V9C22,7.89 21.11,7 20,7H18Z"/></svg>
